X: 1112
M: 6/8
L: 1/8
K: Bb
|: z |\
c2F/F/ FFF | BFd Bfd | c2F/F/ FFF | BFB dBd |\
c2F/F/ FFF | BFd Bfd | c2F/F/ FAc | B3 z2 :|
K: Eb
|: B/A/ |\
|: B |\
e2d c2B | B>cB G2G | A>BA F2F | G2FE2B |\
e2d c2B | B>cB G2G | A2A F2F | E3 "^da Capo"z2 :|

